X:1
T:Rimsky-Korsakov Harmonic Exercises,
T:Strict Melodic Figuration
T:(2)
T:Rimsky-Korsakov Harmonic Exercises, Strict Melodic Figuration (2) 
T:"Practical Manual of Harmony" (1885)
%%score { ( 1 2 ) | ( 3 4 ) }
L:1/8
Q:1/4=70
M:4/4
K:Eb
V:1 treble nm="Piano" snm="Pno."
V:2 treble 
V:3 bass 
V:4 bass 
V:1
"""^Example by Rimsky-Korsakov (harmonization the melody with melodic figuration in the 3 lower voices):""_c:""^passing tones""^suspensions""^(""^)""^,""^auxiliary tones""^," (G4"" c4 | %1
"""" =B4"" c4 |"" e4"""" d4 |"""_c:""_E♭:""_{" !breath!!fermata!c8[Q:1/4=65] | %4
[Q:1/4=70]"_E♭:" B4 A4 | G4 A4 | G4 F4 | !breath!!fermata!E8[Q:1/4=65] |[Q:1/4=70]"_E♭:" B4 B4 | %9
 G4 G4 | c4"""_E♭:""_c:""_{" d4 |""[Q:1/4=65] =B4"" !breath!!fermata!G4 | %12
""[Q:1/4=70]"_c:""_E♭:""_{" c4 d4 | e4"""_E♭:""_c:""_{" d4 |"" c4""[Q:1/4=60] =B4 | %15
""[Q:1/4=45] !fermata!c8) |] %16
V:2
 (EDEF G4 | GAGF EDEF | G4 G2 F2- |"" F2 ED !fermata!E4 |"" EGFE-"" EDCD |"" E4"" F4- | %6
"" F2 E2-"" E2 D2 |"" E""C""B,A, !fermata!G,4 |"" E4"" F4 |"" E4"" EFED |"" ECDE"" F4 | D4 D4 | %12
"" E4"" FG""AF |"" GEFG"" A4 | G4- GAGF- | FDEF !fermata!E4) |] %16
V:3
 (CB,CD E4 | D4 C4 | C4- C2 =B,2 | C4 !fermata!G,4 | G,4 A,4 | B,4 C4 | B,E,F,G, A,F,B,A, | %7
 G,A,G,F, !fermata!G,4 | G,B,A,G, F,3 B,- | B,G,A,B, C4- | C2 B,2 A,CB,A, | G,^F,G,=A, =B,4 | %12
 G,4 B,4 | B,4 A,B,CD | ECDE DFED | C4 !fermata!G,4) |] %16
V:4
 (C,4 C,D,E,F, | G,4 A,4 | E,D,E,F, G,4 | !fermata!C,8 | E,4 F,4 | E,D,C,""B,, A,,F,,G,,A,, | %6
 B,,8 | !fermata!E,8 | E,4- E,D,C,D, | E,3 D, C,3 B,, | A,,2 G,,2 F,,4 | G,,4 !fermata!G,4 | %12
 C,E,D,C, B,,4 | E,4 F,4 | G,8 | !fermata!C,8) |] %16

